X: 40829
T: Tralee Gaol
R: polka
M: 2/4
K: Edorian
|:BE E/F/G/A/|B>A FA|BE- EF/E/|D>E FA|
BE EF/A/|B/c/B/A/ FA|BA/B/ dF|FE E2:|
|:Be- e>f|ed BA|Be ef|d/e/d/c/ BA|
Be ef|ed B>c|dB AF|E4:|

